packages/tokens/icons/arrowCircle2/size16Px.svg

<svg viewBox="0 0 16 16" fill="none" xmlns="http://www.w3.org/2000/svg" width="1em" height="1em"><path d="M14 9C14 8.72386 13.7761 8.5 13.5 8.5C13.2239 8.5 13 8.72386 13 9H14ZM12.5 3.5L12.8536 3.85355C12.9473 3.75979 13 3.63261 13 3.5C13 3.36739 12.9473 3.24021 12.8536 3.14645L12.5 3.5ZM10.8536 1.14645C10.6583 0.951184 10.3417 0.951184 10.1464 1.14645C9.95118 1.34171 9.95118 1.65829 10.1464 1.85355L10.8536 1.14645ZM10.1464 5.14645C9.95118 5.34171 9.95118 5.65829 10.1464 5.85355C10.3417 6.04881 10.6583 6.04881 10.8536 5.85355L10.1464 5.14645ZM13 9C13 11.7614 10.7614 14 8 14V15C11.3137 15 14 12.3137 14 9H13ZM8 14C5.23858 14 3 11.7614 3 9H2C2 12.3137 4.68629 15 8 15V14ZM3 9C3 6.23858 5.23858 4 8 4V3C4.68629 3 2 5.68629 2 9H3ZM8 4L12.5 4V3L8 3V4ZM10.1464 1.85355L12.1464 3.85355L12.8536 3.14645L10.8536 1.14645L10.1464 1.85355ZM12.1464 3.14645L10.1464 5.14645L10.8536 5.85355L12.8536 3.85355L12.1464 3.14645Z" fill="currentColor"/></svg>

<svg xmlns="http://www.w3.org/2000/svg" fill="none" viewBox="0 0 16 16" width="1em" height="1em"><path fill="currentColor" d="M14 9a.5.5 0 0 0-1 0h1Zm-1.5-5.5.354.354a.5.5 0 0 0 0-.708L12.5 3.5Zm-1.646-2.354a.5.5 0 0 0-.708.708l.708-.708Zm-.708 4a.5.5 0 0 0 .708.708l-.708-.708ZM13 9a5 5 0 0 1-5 5v1a6 6 0 0 0 6-6h-1Zm-5 5a5 5 0 0 1-5-5H2a6 6 0 0 0 6 6v-1ZM3 9a5 5 0 0 1 5-5V3a6 6 0 0 0-6 6h1Zm5-5h4.5V3H8v1Zm2.146-2.146 2 2 .708-.708-2-2-.708.708Zm2 1.292-2 2 .708.708 2-2-.708-.708Z"/></svg>
